svgs/resume.svg

<?xml version="1.0" encoding="UTF-8"?>
<!-- Uploaded to: SVG Repo, www.svgrepo.com, Generator: SVG Repo Mixer Tools -->
<svg width="800px" height="800px" fill="#000000" version="1.1" viewBox="0 0 392.53 392.53" xml:space="preserve" xmlns="http://www.w3.org/2000/svg">
	<g>
		<path d="m292.4 324.85h-192.52c-6.012 0-10.925 4.848-10.925 10.925 0 6.012 4.849 10.925 10.925 10.925h192.58c6.012 0 10.925-4.849 10.925-10.925-0.065-6.077-4.913-10.925-10.99-10.925z"/>
		<path d="m292.4 277.01h-192.52c-6.012 0-10.925 4.848-10.925 10.925 0 6.012 4.849 10.925 10.925 10.925h192.58c6.012 0 10.925-4.849 10.925-10.925-0.065-6.076-4.913-10.925-10.99-10.925z"/>
		<path d="m196.14 45.834c-25.859 0-46.998 21.075-46.998 46.998 0 25.859 21.139 46.933 46.998 46.933s46.998-21.075 46.998-46.998-21.139-46.933-46.998-46.933zm0 72.017c-13.77 0-25.083-11.313-25.083-25.083s11.248-25.083 25.083-25.083 25.083 11.313 25.083 25.083c0 13.769-11.313 25.083-25.083 25.083z"/>
		<path d="m258.52 163.36c-39.887-15.515-84.752-15.515-124.64 0-13.059 5.107-21.786 18.101-21.786 32.388v44.347c-0.065 6.012 4.849 10.925 10.861 10.925h146.42c6.012 0 10.925-4.848 10.925-10.925v-44.347c0-14.287-8.727-27.281-21.786-32.388zm0 65.874h-124.64v-33.422c0-5.301 3.168-10.214 7.887-12.024 34.844-13.511 74.02-13.511 108.86 0 4.719 1.875 7.887 6.659 7.887 12.024v33.422z"/>
		<path d="m313.08 0h-181.59c-8.404 0-16.291 3.232-22.238 9.18l-52.235 52.234c-5.947 5.948-9.18 13.834-9.18 22.238v277.33c0 17.39 14.158 31.547 31.547 31.547h233.76c17.39 0 31.547-14.158 31.547-31.547v-329.44c-0.193-17.389-14.351-31.547-31.611-31.547zm-201.05 37.236v27.022h-27.022l27.022-27.022zm210.68 79.58h-40.598c-6.012 0-10.925 4.849-10.925 10.925 0 6.012 4.848 10.925 10.925 10.925h40.598v19.394h-14.869c-6.012 0-10.925 4.848-10.925 10.925 0 6.012 4.849 10.925 10.925 10.925h14.869v181.14c0 5.366-4.331 9.697-9.632 9.697h-233.89c-5.301 0-9.632-4.331-9.632-9.632v-275.07h53.398c6.012 0 10.925-4.848 10.925-10.925v-53.398h179.2c5.301 0 9.632 4.331 9.632 9.632v85.463z"/>
	</g>
</svg>

<?xml version="1.0" encoding="iso-8859-1"?>
<!-- Uploaded to: SVG Repo, www.svgrepo.com, Generator: SVG Repo Mixer Tools -->
<svg fill="#000000" height="800px" width="800px" version="1.1" id="Layer_1" xmlns="http://www.w3.org/2000/svg" xmlns:xlink="http://www.w3.org/1999/xlink" 
	 viewBox="0 0 392.533 392.533" xml:space="preserve">
<g>
	<g>
		<path d="M292.396,324.849H99.879c-6.012,0-10.925,4.848-10.925,10.925c0,6.012,4.849,10.925,10.925,10.925h192.582
			c6.012,0,10.925-4.849,10.925-10.925C303.321,329.697,298.473,324.849,292.396,324.849z"/>
	</g>
</g>
<g>
	<g>
		<path d="M292.396,277.01H99.879c-6.012,0-10.925,4.848-10.925,10.925c0,6.012,4.849,10.925,10.925,10.925h192.582
			c6.012,0,10.925-4.849,10.925-10.925C303.321,281.859,298.473,277.01,292.396,277.01z"/>
	</g>
</g>
<g>
	<g>
		<path d="M196.137,45.834c-25.859,0-46.998,21.075-46.998,46.998c0,25.859,21.139,46.933,46.998,46.933
			s46.998-21.075,46.998-46.998S221.996,45.834,196.137,45.834z M196.137,117.851c-13.77,0-25.083-11.313-25.083-25.083
			c0-13.77,11.248-25.083,25.083-25.083s25.083,11.313,25.083,25.083C221.22,106.537,209.907,117.851,196.137,117.851z"/>
	</g>
</g>
<g>
	<g>
		<path d="M258.521,163.362c-39.887-15.515-84.752-15.515-124.638,0c-13.059,5.107-21.786,18.101-21.786,32.388v44.347
			c-0.065,6.012,4.849,10.925,10.861,10.925h146.424c6.012,0,10.925-4.848,10.925-10.925V195.75
			C280.307,181.463,271.58,168.469,258.521,163.362z M258.521,229.236H133.883v-33.422c0-5.301,3.168-10.214,7.887-12.024
			c34.844-13.511,74.02-13.511,108.865,0c4.719,1.875,7.887,6.659,7.887,12.024V229.236z"/>
	</g>
</g>
<g>
	<g>
		<path d="M313.083,0H131.491c-8.404,0-16.291,3.232-22.238,9.18L57.018,61.414c-5.947,5.948-9.18,13.834-9.18,22.238v277.333
			c0,17.39,14.158,31.547,31.547,31.547h233.762c17.39,0,31.547-14.158,31.547-31.547V31.547C344.501,14.158,330.343,0,313.083,0z
			 M112.032,37.236v27.022H85.01L112.032,37.236z M322.715,116.816h-40.598c-6.012,0-10.925,4.849-10.925,10.925
			c0,6.012,4.848,10.925,10.925,10.925h40.598v19.394h-14.869c-6.012,0-10.925,4.848-10.925,10.925
			c0,6.012,4.849,10.925,10.925,10.925h14.869v181.139c0,5.366-4.331,9.697-9.632,9.697H79.192c-5.301,0-9.632-4.331-9.632-9.632
			V86.044h53.398c6.012,0,10.925-4.848,10.925-10.925V21.721h179.2c5.301,0,9.632,4.331,9.632,9.632V116.816z"/>
	</g>
</g>
</svg>
